X:14053
T:Red River Waltz
C:Andy De Jarlis
M:3/4
L:1/8
K:G
dc|B2 d2 g2|b4 fg|a2 g2 e2|c4 c2|!
DE FG AB|c4 A2|DE FG Ac|B4 dc|!
B2 d2 g2|b4 fg|a2 g2 e2|c6|!
d3 ^c de|d2 E2 F2|G3 F GA|G4:|!
|:d2|d2 ^cd ed|B6|g2 fg ag|e6|!
DE FG AB|c6|DE FG Ac|B4 d2|!
d2 ^cd ed|B6|G2 F2 G2|e6|!
d3 ^c de|d2 E2 F2|G3 F GA|G4:|!
